include/images/drop.svg

<?xml version="1.0" encoding="UTF-8" standalone="no"?>
<!DOCTYPE svg PUBLIC "-//W3C//DTD SVG 1.1//EN" "http://www.w3.org/Graphics/SVG/1.1/DTD/svg11.dtd">
<svg xmlns="http://www.w3.org/2000/svg" version="1.1" viewBox="0 0 32 32">
<g stroke-width="2.00" fill="none" stroke-linecap="butt">
<path stroke="#c1c1c1" vector-effect="non-scaling-stroke" d="
  M 5.84 4.73
  Q 15.98 7.14 25.92 4.13
  Q 26.94 3.83 25.97 3.55
  Q 15.97 0.69 5.77 3.17
  Q 2.56 3.95 5.84 4.73"
/>
<path stroke="#b9b9b9" vector-effect="non-scaling-stroke" d="
  M 26.82 5.78
  C 19.23 7.35 11.71 7.38 3.97 5.67
  A 0.42 0.33 4.5 0 0 3.45 6.01
  L 6.29 24.94
  Q 6.61 27.09 8.82 27.87
  Q 15.86 30.35 22.81 27.79
  Q 24.34 27.23 24.60 25.52
  L 27.52 6.50
  A 0.63 0.59 89.0 0 0 26.82 5.78"
/>
<path stroke="#8fbb81" vector-effect="non-scaling-stroke" d="
  M 16.01 12.29
  L 16.57 13.98
  A 0.96 0.32 74.9 0 0 17.05 14.70
  Q 20.36 15.08 20.19 11.94
  A 1.16 0.83 20.0 0 0 19.66 11.17
  C 13.56 7.19 6.43 13.93 12.31 15.25
  A 0.95 0.79 22.3 0 0 13.22 14.96
  L 15.12 12.35
  Q 15.75 11.49 16.01 12.29"
/>
<path stroke="#87b47b" vector-effect="non-scaling-stroke" d="
  M 20.29 20.66
  Q 14.95 19.51 17.23 24.53
  A 0.77 0.43 -15.4 0 0 18.01 24.72
  C 25.35 23.05 23.34 11.43 18.71 16.57
  A 0.67 0.59 -42.6 0 0 18.63 17.36
  L 20.64 20.09
  Q 21.20 20.86 20.29 20.66"
/>
<path stroke="#8fbb81" vector-effect="non-scaling-stroke" d="
  M 12.82 24.61
  Q 16.26 24.89 14.89 20.92
  A 0.84 0.79 -11.2 0 0 14.06 20.40
  L 11.76 20.53
  A 0.73 0.55 -2.0 0 1 10.98 19.99
  Q 11.00 19.06 11.83 18.57
  A 0.74 0.34 -27.6 0 0 12.27 18.00
  Q 11.84 16.18 10.01 15.96
  A 1.74 1.53 3.2 0 0 8.06 17.49
  C 8.15 20.33 9.41 24.33 12.82 24.61"
/>
</g>
<path fill="#959595" d="
  M 28.95 7.45
  C 27.89 14.92 27.07 20.41 25.94 26.37
  Q 25.36 29.48 22.20 29.79
  C 18.00 30.20 5.92 31.88 4.93 26.08
  Q 4.24 22.02 3.89 17.95
  Q 3.85 17.48 3.55 17.04
  C 2.69 15.78 2.87 12.69 2.49 11.01
  C 1.62 7.21 0.68 1.41 6.56 1.15
  Q 13.38 0.85 20.20 1.07
  C 25.60 1.26 29.93 0.49 28.95 7.45
  Z
  M 5.84 4.73
  Q 15.98 7.14 25.92 4.13
  Q 26.94 3.83 25.97 3.55
  Q 15.97 0.69 5.77 3.17
  Q 2.56 3.95 5.84 4.73
  Z
  M 26.82 5.78
  C 19.23 7.35 11.71 7.38 3.97 5.67
  A 0.42 0.33 4.5 0 0 3.45 6.01
  L 6.29 24.94
  Q 6.61 27.09 8.82 27.87
  Q 15.86 30.35 22.81 27.79
  Q 24.34 27.23 24.60 25.52
  L 27.52 6.50
  A 0.63 0.59 89.0 0 0 26.82 5.78
  Z"
/>
<path fill="#ecedec" d="
  M 5.84 4.73
  Q 2.56 3.95 5.77 3.17
  Q 15.97 0.69 25.97 3.55
  Q 26.94 3.83 25.92 4.13
  Q 15.98 7.14 5.84 4.73
  Z"
/>
<path fill="#dddddc" d="
  M 3.97 5.67
  C 11.71 7.38 19.23 7.35 26.82 5.78
  A 0.63 0.59 89.0 0 1 27.52 6.50
  L 24.60 25.52
  Q 24.34 27.23 22.81 27.79
  Q 15.86 30.35 8.82 27.87
  Q 6.61 27.09 6.29 24.94
  L 3.45 6.01
  A 0.42 0.33 4.5 0 1 3.97 5.67
  Z
  M 16.01 12.29
  L 16.57 13.98
  A 0.96 0.32 74.9 0 0 17.05 14.70
  Q 20.36 15.08 20.19 11.94
  A 1.16 0.83 20.0 0 0 19.66 11.17
  C 13.56 7.19 6.43 13.93 12.31 15.25
  A 0.95 0.79 22.3 0 0 13.22 14.96
  L 15.12 12.35
  Q 15.75 11.49 16.01 12.29
  Z
  M 20.29 20.66
  Q 14.95 19.51 17.23 24.53
  A 0.77 0.43 -15.4 0 0 18.01 24.72
  C 25.35 23.05 23.34 11.43 18.71 16.57
  A 0.67 0.59 -42.6 0 0 18.63 17.36
  L 20.64 20.09
  Q 21.20 20.86 20.29 20.66
  Z
  M 12.82 24.61
  Q 16.26 24.89 14.89 20.92
  A 0.84 0.79 -11.2 0 0 14.06 20.40
  L 11.76 20.53
  A 0.73 0.55 -2.0 0 1 10.98 19.99
  Q 11.00 19.06 11.83 18.57
  A 0.74 0.34 -27.6 0 0 12.27 18.00
  Q 11.84 16.18 10.01 15.96
  A 1.74 1.53 3.2 0 0 8.06 17.49
  C 8.15 20.33 9.41 24.33 12.82 24.61
  Z"
/>
<path fill="#409826" d="
  M 15.12 12.35
  L 13.22 14.96
  A 0.95 0.79 22.3 0 1 12.31 15.25
  C 6.43 13.93 13.56 7.19 19.66 11.17
  A 1.16 0.83 20.0 0 1 20.19 11.94
  Q 20.36 15.08 17.05 14.70
  A 0.96 0.32 74.9 0 1 16.57 13.98
  L 16.01 12.29
  Q 15.75 11.49 15.12 12.35
  Z"
/>
<path fill="#308a19" d="
  M 20.64 20.09
  L 18.63 17.36
  A 0.67 0.59 -42.6 0 1 18.71 16.57
  C 23.34 11.43 25.35 23.05 18.01 24.72
  A 0.77 0.43 -15.4 0 1 17.23 24.53
  Q 14.95 19.51 20.29 20.66
  Q 21.20 20.86 20.64 20.09
  Z"
/>
<path fill="#409826" d="
  M 12.82 24.61
  C 9.41 24.33 8.15 20.33 8.06 17.49
  A 1.74 1.53 3.2 0 1 10.01 15.96
  Q 11.84 16.18 12.27 18.00
  A 0.74 0.34 -27.6 0 1 11.83 18.57
  Q 11.00 19.06 10.98 19.99
  A 0.73 0.55 -2.0 0 0 11.76 20.53
  L 14.06 20.40
  A 0.84 0.79 -11.2 0 1 14.89 20.92
  Q 16.26 24.89 12.82 24.61
  Z"
/>
</svg>

<svg xmlns="http://www.w3.org/2000/svg" viewBox="0 0 32 32"><g fill="none" stroke-width="2"><path stroke="#c1c1c1" d="M5.8 4.7Q16 7.1 26 4.1q1-.3 0-.5-10-3-20.1-.4-3.2.8 0 1.5"/><path stroke="#b9b9b9" d="M26.8 5.8A54 54 0 0 1 4 5.7a.4.3 4.5 0 0-.6.3l2.9 19q.3 2 2.5 2.9 7 2.4 14-.1 1.5-.6 1.8-2.3l3-19a.6.6 89 0 0-.8-.7"/><path stroke="#8fbb81" d="m16 12.3.6 1.7a1 .3 74.9 0 0 .4.7q3.4.4 3.2-2.8a1.2.8 20 0 0-.5-.7c-6.1-4-13.3 2.7-7.4 4a1 .8 22.3 0 0 1-.2l1.8-2.6q.7-1 1-.1"/><path stroke="#87b47b" d="M20.3 20.7q-5.4-1.2-3 3.8a.8.4-15.4 0 0 .7.2c7.4-1.6 5.3-13.3.7-8.1v.8l2 2.7q.5.8-.4.6"/><path stroke="#8fbb81" d="M12.8 24.6q3.5.3 2-3.7l-.7-.5-2.3.1a1 1-2 0 1-.8-.5q0-1 .8-1.4a.7.3-27.6 0 0 .5-.6q-.5-1.8-2.3-2a1.7 1.5 3.2 0 0-2 1.5c.2 2.8 1.4 6.8 4.8 7.1"/></g><path fill="#959595" d="m29 7.5-3 18.9q-.6 3-3.8 3.4c-4.2.4-16.3 2-17.3-3.7q-.7-4-1-8.2 0-.4-.4-.9c-.8-1.2-.6-4.3-1-6-.9-3.8-1.8-9.6 4-9.9q6.9-.3 13.7 0c5.4.2 9.7-.6 8.7 6.3M5.8 4.7Q16 7.1 26 4.1q1-.3 0-.5-10-3-20.1-.4-3.2.8 0 1.5m21 1A54 54 0 0 1 4 5.8a.4.3 4.5 0 0-.6.3l2.9 19q.3 2 2.5 2.9 7 2.4 14-.1 1.5-.6 1.8-2.3l3-19a.6.6 89 0 0-.8-.7"/><path fill="#ecedec" d="M5.8 4.7q-3.2-.7 0-1.5Q16 .7 26 3.6q1 .2 0 .5-10 3-20.2.6"/><path fill="#dddddc" d="M4 5.7a54 54 0 0 0 22.8 0 .6.6 89 0 1 .7.8l-2.9 19q-.3 1.7-1.8 2.3-7 2.5-14 0-2.2-.7-2.5-2.9L3.5 6a.4.3 4.5 0 1 .5-.3m12 6.6.6 1.7a1 .3 74.9 0 0 .4.7q3.4.4 3.2-2.8a1.2.8 20 0 0-.5-.7c-6.1-4-13.3 2.7-7.4 4a1 .8 22.3 0 0 1-.2l1.8-2.6q.6-1 1-.1m4.3 8.4q-5.4-1.2-3 3.8a.8.4-15.4 0 0 .7.2c7.4-1.7 5.3-13.3.7-8.1v.8l2 2.7q.5.8-.4.6m-7.5 4q3.5.2 2-3.8l-.7-.5-2.3.1a1 1-2 0 1-.8-.5q0-1 .8-1.4a.7.3-27.6 0 0 .5-.6q-.5-1.8-2.3-2a1.7 1.5 3.2 0 0-2 1.5c.2 2.8 1.4 6.8 4.8 7.1"/><path fill="#409826" d="M15.1 12.4 13.2 15a1 .8 22.3 0 1-.9.2c-5.9-1.3 1.3-8 7.4-4a1.2.8 20 0 1 .5.7q.2 3.2-3.2 2.8a1 .3 74.9 0 1-.4-.7l-.6-1.7q-.3-.8-.9 0"/><path fill="#308a19" d="m20.6 20-2-2.6.1-.8c4.6-5.2 6.7 6.5-.7 8.1a.8.4-15.4 0 1-.8-.2q-2.2-5 3-3.8 1 .2.4-.6"/><path fill="#409826" d="M12.8 24.6c-3.4-.3-4.6-4.3-4.7-7.1a1.7 1.5 3.2 0 1 2-1.5q1.7.2 2.2 2a.7.3-27.6 0 1-.5.6Q11 19 11 20a1 1-2 0 0 .8.5l2.3-.1a1 1-11.2 0 1 .8.5q1.4 4-2 3.7"/></svg>
